styles/3/Numix/128x128/places/default-folder-move.svg

<svg xmlns="http://www.w3.org/2000/svg" xmlns:xlink="http://www.w3.org/1999/xlink" width="128px" height="128px" viewBox="0 0 128 128" version="1.1">
<defs>
<filter id="alpha" filterUnits="objectBoundingBox" x="0%" y="0%" width="100%" height="100%">
  <feColorMatrix type="matrix" in="SourceGraphic" values="0 0 0 0 1 0 0 0 0 1 0 0 0 0 1 0 0 0 1 0"/>
</filter>
<image id="image9" width="128" height="128" xlink:href="data:image/png;base64,iVBORw0KGgoAAAANSUhEUgAAAIAAAACACAYAAADDPmHLAAAABmJLR0QA/wD/AP+gvaeTAAAA3klEQVR4nO3SsQ2AMADAMKB/M/B3JZ5AVBD7ggzZNgAAAAAAAADgb/Yxxrk64kvmnNfqhicdqwNYywBxBogzQJwB4gwQZ4A4A8QZIM4AcQaIM0CcAeIMEGeAOAPEGSDOAHEGiDNAnAHiDBBngDgDxBkgzgBxBogzQJwB4gwQZ4A4A8QZIM4AcQaIM0CcAeIMEGeAOAPEGSDOAHEGiDNAnAHiDBBngDgDxBkgzgBxBogzQJwB4gwQZ4A4A8QZIM4AcQYAAAAAAAAAAAAAAAAAAAAAAAAAAAAAAAAAAHjBDW3xBHiDAvXUAAAAAElFTkSuQmCC"/>
<mask id="mask0">
  <g filter="url(#alpha)">
<use xlink:href="#image9"/>
  </g>
</mask>
<clipPath id="clip1">
  <rect width="128" height="128"/>
</clipPath>
<g id="surface11" clip-path="url(#clip1)">
<path style=" stroke:none;fill-rule:nonzero;fill:rgb(91.764706%,56.470588%,21.176471%);fill-opacity:1;" d="M 4 20 L 72 20 L 72 48 L 4 48 Z M 4 20 "/>
<path style=" stroke:none;fill-rule:nonzero;fill:rgb(91.764706%,56.470588%,21.176471%);fill-opacity:1;" d="M 12.054688 20 C 12.054688 18 12.054688 16 15.679688 16 L 28.375 16 C 32 16 32 18 32 20 Z M 12.054688 20 "/>
<path style=" stroke:none;fill-rule:nonzero;fill:rgb(58.431373%,59.607843%,62.352941%);fill-opacity:1;" d="M 8 28 L 68 28 L 68 40 L 8 40 Z M 8 28 "/>
<path style=" stroke:none;fill-rule:nonzero;fill:rgb(84.705882%,84.705882%,85.490196%);fill-opacity:1;" d="M 16 24 L 64 24 L 64 60 L 16 60 Z M 16 24 "/>
<path style=" stroke:none;fill-rule:nonzero;fill:rgb(97.647059%,97.647059%,97.647059%);fill-opacity:1;" d="M 12 32 L 60 32 L 60 68 L 12 68 Z M 12 32 "/>
<path style=" stroke:none;fill-rule:nonzero;fill:rgb(94.901961%,73.333333%,39.215686%);fill-opacity:1;" d="M 0 36 L 76 36 L 70.570312 76 L 5.429688 76 Z M 0 36 "/>
</g>
</defs>
<g id="surface1">
<use xlink:href="#surface11" mask="url(#mask0)"/>
<path style=" stroke:none;fill-rule:nonzero;fill:rgb(91.764706%,56.470588%,21.176471%);fill-opacity:1;" d="M 56 60 L 124 60 L 124 88 L 56 88 Z M 56 60 "/>
<path style=" stroke:none;fill-rule:nonzero;fill:rgb(91.764706%,56.470588%,21.176471%);fill-opacity:1;" d="M 64.054688 60 C 64.054688 58 64.054688 56 67.679688 56 L 80.375 56 C 84 56 84 58 84 60 Z M 64.054688 60 "/>
<path style=" stroke:none;fill-rule:nonzero;fill:rgb(58.431373%,59.607843%,62.352941%);fill-opacity:1;" d="M 60 68 L 120 68 L 120 80 L 60 80 Z M 60 68 "/>
<path style=" stroke:none;fill-rule:nonzero;fill:rgb(84.705882%,84.705882%,85.490196%);fill-opacity:1;" d="M 68 64 L 116 64 L 116 100 L 68 100 Z M 68 64 "/>
<path style=" stroke:none;fill-rule:nonzero;fill:rgb(97.647059%,97.647059%,97.647059%);fill-opacity:1;" d="M 64 72 L 112 72 L 112 108 L 64 108 Z M 64 72 "/>
<path style=" stroke:none;fill-rule:nonzero;fill:rgb(94.901961%,73.333333%,39.215686%);fill-opacity:1;" d="M 52 76 L 128 76 L 122.570312 116 L 57.429688 116 Z M 52 76 "/>
</g>
</svg>

<?xml version="1.0" encoding="UTF-8" standalone="no"?>
<svg
   xmlns:dc="http://purl.org/dc/elements/1.1/"
   xmlns:cc="http://creativecommons.org/ns#"
   xmlns:rdf="http://www.w3.org/1999/02/22-rdf-syntax-ns#"
   xmlns:svg="http://www.w3.org/2000/svg"
   xmlns="http://www.w3.org/2000/svg"
   xmlns:xlink="http://www.w3.org/1999/xlink"
   xmlns:sodipodi="http://sodipodi.sourceforge.net/DTD/sodipodi-0.dtd"
   xmlns:inkscape="http://www.inkscape.org/namespaces/inkscape"
   width="128px"
   height="128px"
   viewBox="0 0 128 128"
   version="1.1"
   id="svg3064"
   inkscape:version="0.48.5 r10040"
   sodipodi:docname="folder-move.svg">
  <metadata
     id="metadata3110">
    <rdf:RDF>
      <cc:Work
         rdf:about="">
        <dc:format>image/svg+xml</dc:format>
        <dc:type
           rdf:resource="http://purl.org/dc/dcmitype/StillImage" />
      </cc:Work>
    </rdf:RDF>
  </metadata>
  <sodipodi:namedview
     pagecolor="#ffffff"
     bordercolor="#666666"
     borderopacity="1"
     objecttolerance="10"
     gridtolerance="10"
     guidetolerance="10"
     inkscape:pageopacity="0"
     inkscape:pageshadow="2"
     inkscape:window-width="1280"
     inkscape:window-height="998"
     id="namedview3108"
     showgrid="false"
     inkscape:zoom="3.6875"
     inkscape:cx="97.351284"
     inkscape:cy="48.559668"
     inkscape:window-x="0"
     inkscape:window-y="0"
     inkscape:window-maximized="1"
     inkscape:current-layer="svg3064" />
  <defs
     id="defs3066">
    <filter
       id="alpha"
       filterUnits="objectBoundingBox"
       x="0%"
       y="0%"
       width="100%"
       height="100%">
      <feColorMatrix
         type="matrix"
         in="SourceGraphic"
         values="0 0 0 0 1 0 0 0 0 1 0 0 0 0 1 0 0 0 1 0"
         id="feColorMatrix3069" />
    </filter>
    <image
       id="image9"
       width="128"
       height="128"
       xlink:href="data:image/png;base64,iVBORw0KGgoAAAANSUhEUgAAAIAAAACACAYAAADDPmHLAAAABmJLR0QA/wD/AP+gvaeTAAAA3klEQVR4nO3SsQ2AMADAMKB/M/B3JZ5AVBD7ggzZNgAAAAAAAADgb/Yxxrk64kvmnNfqhicdqwNYywBxBogzQJwB4gwQZ4A4A8QZIM4AcQaIM0CcAeIMEGeAOAPEGSDOAHEGiDNAnAHiDBBngDgDxBkgzgBxBogzQJwB4gwQZ4A4A8QZIM4AcQaIM0CcAeIMEGeAOAPEGSDOAHEGiDNAnAHiDBBngDgDxBkgzgBxBogzQJwB4gwQZ4A4A8QZIM4AcQYAAAAAAAAAAAAAAAAAAAAAAAAAAAAAAAAAAHjBDW3xBHiDAvXUAAAAAElFTkSuQmCC" />
    <mask
       id="mask0">
      <g
         filter="url(#alpha)"
         id="g3073">
        <use
           xlink:href="#image9"
           id="use3075" />
      </g>
    </mask>
    <clipPath
       id="clip1">
      <rect
         width="128"
         height="128"
         id="rect3078" />
    </clipPath>
    <g
       id="surface11"
       clip-path="url(#clip1)">
      <path
         style=" stroke:none;fill-rule:nonzero;fill:rgb(91.764706%,56.470588%,21.176471%);fill-opacity:1;"
         d="M 4 20 L 72 20 L 72 48 L 4 48 Z M 4 20 "
         id="path3081" />
      <path
         style=" stroke:none;fill-rule:nonzero;fill:rgb(91.764706%,56.470588%,21.176471%);fill-opacity:1;"
         d="M 12.054688 20 C 12.054688 18 12.054688 16 15.679688 16 L 28.375 16 C 32 16 32 18 32 20 Z M 12.054688 20 "
         id="path3083" />
      <path
         style=" stroke:none;fill-rule:nonzero;fill:rgb(58.431373%,59.607843%,62.352941%);fill-opacity:1;"
         d="M 8 28 L 68 28 L 68 40 L 8 40 Z M 8 28 "
         id="path3085" />
      <path
         style=" stroke:none;fill-rule:nonzero;fill:rgb(84.705882%,84.705882%,85.490196%);fill-opacity:1;"
         d="M 16 24 L 64 24 L 64 60 L 16 60 Z M 16 24 "
         id="path3087" />
      <path
         style=" stroke:none;fill-rule:nonzero;fill:rgb(97.647059%,97.647059%,97.647059%);fill-opacity:1;"
         d="M 12 32 L 60 32 L 60 68 L 12 68 Z M 12 32 "
         id="path3089" />
      <path
         style=" stroke:none;fill-rule:nonzero;fill:rgb(94.901961%,73.333333%,39.215686%);fill-opacity:1;"
         d="M 0 36 L 76 36 L 70.570312 76 L 5.429688 76 Z M 0 36 "
         id="path3091" />
    </g>
  </defs>
  <g
     id="g4390"
     style="opacity:0.5">
    <path
       inkscape:connector-curvature="0"
       id="path5490"
       d="m 4,20 68,0 0,28 -68,0 z m 0,0"
       style="opacity:1;fill:#ea9036;fill-opacity:1;fill-rule:nonzero;stroke:none" />
    <path
       inkscape:connector-curvature="0"
       id="path5492"
       d="m 12.054688,20 c 0,-2 0,-4 3.625,-4 L 28.375,16 C 32,16 32,18 32,20 z m 0,0"
       style="opacity:1;fill:#ea9036;fill-opacity:1;fill-rule:nonzero;stroke:none" />
    <path
       inkscape:connector-curvature="0"
       id="path5494"
       d="m 8,28 60,0 0,12 -60,0 z m 0,0"
       style="opacity:1;fill:#94979e;fill-opacity:1;fill-rule:nonzero;stroke:none" />
    <path
       inkscape:connector-curvature="0"
       id="path5496"
       d="m 16,24 48,0 0,36 -48,0 z m 0,0"
       style="opacity:1;fill:#d7d7d9;fill-opacity:1;fill-rule:nonzero;stroke:none" />
    <path
       inkscape:connector-curvature="0"
       id="path5498"
       d="m 12,32 48,0 0,36 -48,0 z m 0,0"
       style="opacity:1;fill:#f8f8f8;fill-opacity:1;fill-rule:nonzero;stroke:none" />
    <path
       inkscape:connector-curvature="0"
       id="path5500"
       d="m 0,36 76,0 -5.42969,40 -65.140622,0 z m 0,0"
       style="opacity:1;fill:#f2bb64;fill-opacity:1;fill-rule:nonzero;stroke:none" />
  </g>
  <path
     inkscape:connector-curvature="0"
     id="path3096"
     d="m 56,60 68,0 0,28 -68,0 z m 0,0"
     style="fill:#ea9036;fill-opacity:1;fill-rule:nonzero;stroke:none" />
  <path
     inkscape:connector-curvature="0"
     id="path3098"
     d="m 64.054688,60 c 0,-2 0,-4 3.625,-4 L 80.375,56 C 84,56 84,58 84,60 z m 0,0"
     style="fill:#ea9036;fill-opacity:1;fill-rule:nonzero;stroke:none" />
  <path
     inkscape:connector-curvature="0"
     id="path3100"
     d="m 60,68 60,0 0,12 -60,0 z m 0,0"
     style="fill:#94979e;fill-opacity:1;fill-rule:nonzero;stroke:none" />
  <path
     inkscape:connector-curvature="0"
     id="path3102"
     d="m 68,64 48,0 0,36 -48,0 z m 0,0"
     style="fill:#d7d7d9;fill-opacity:1;fill-rule:nonzero;stroke:none" />
  <path
     inkscape:connector-curvature="0"
     id="path3104"
     d="m 64,72 48,0 0,36 -48,0 z m 0,0"
     style="fill:#f8f8f8;fill-opacity:1;fill-rule:nonzero;stroke:none" />
  <path
     inkscape:connector-curvature="0"
     id="path3106"
     d="m 52,76 76,0 -5.42969,40 -65.140622,0 z m 0,0"
     style="fill:#f2bb64;fill-opacity:1;fill-rule:nonzero;stroke:none" />
</svg>
